client/resources/iconsets/breeze/src/svg/16x16/icon_send_later_black.svg

<svg xmlns="http://www.w3.org/2000/svg" width="16" height="16" viewBox="0 0 16 16">
 <path style="fill:#6d6d70"
       d="M 12.5 0 C 10.567003 0 9 1.5670034 9 3.5 C 9 5.4329966 10.567003 7 12.5 7 C 14.432997 7 16 5.4329966 16 3.5 C 16 1.5670034 14.432997 0 12.5 0 z M 12.5 1 C 13.880712 1 15 2.1192881 15 3.5 C 15 4.8807119 13.880712 6 12.5 6 C 11.119288 6 10 4.8807119 10 3.5 C 10 2.1192881 11.119288 1 12.5 1 z M 12 2 L 12 4 L 13 4 L 14 4 L 14 3 L 13 3 L 13 2 L 12 2 z M 1 3 C 0.446 3 0 3.446 0 4 L 0 14 C 0 14.554 0.446 15 1 15 L 15 15 C 15.554 15 16 14.554 16 14 L 16 5.8984375 C 15.512598 6.6064833 14.814106 7.1502606 14 7.4609375 L 14 13 L 2 13 L 2 6.1523438 L 7.4003906 10.300781 C 7.755798 10.567024 8.244202 10.567024 8.5996094 10.300781 L 12.037109 7.703125 C 11.2333 7.6139001 10.500906 7.3044278 9.8945312 6.828125 L 8 8.25 L 3.6679688 5 L 8.5390625 5 C 8.3602878 4.5315341 8.25 4.029451 8.25 3.5 C 8.25 3.3287575 8.2808597 3.1660829 8.3007812 3 L 1 3 z "
       />
</svg>

<svg xmlns="http://www.w3.org/2000/svg" width="16" height="16"><path d="M12.5 0a3.5 3.5 0 1 0 0 7 3.5 3.5 0 1 0 0-7zm0 1a2.5 2.5 0 1 1 0 5 2.5 2.5 0 1 1 0-5zM12 2v2h1 1V3h-1V2h-1zM1 3a1 1 0 0 0-1 1v10a1 1 0 0 0 1 1h14a1 1 0 0 0 1-1V5.898a4.27 4.27 0 0 1-2 1.563V13H2V6.152l5.4 4.148a1 1 0 0 0 1.199 0l3.437-2.598c-.804-.089-1.536-.399-2.143-.875L8 8.25 3.668 5h4.871c-.179-.468-.289-.971-.289-1.5 0-.171.031-.334.051-.5H1z" fill="#6d6d70"/></svg>
